X:2678
T:Polonäs efter Pehr Andersson (Dm)
S:efter Pehr Andersson
B:Pehr Anderssons notbok, nr 93
B:http://www.smus.se/earkiv/fmk/browselarge.php?lang=sw&katalogid=Ma+1&bildnr=00031
O:Måstorp, Närke
R:Slängpolska
M:3/4
L:1/8
K:Dm
dc de fd | e2 A4 | fe df ed | e>d cB cA |
dc de fa | "^?"f"^?"e/"^?"f/ g2 a2 | ge fd ec | d2 D4 ::
ff ff fa | ee ee ef | dc de fd | ^ce A4 |
ff ff fa | ee ee ef | ae fd ec | d2 D4 !fine! :|
(:musicend:)
(:music:)
